!!!OTL: Heimkehr des Ehemannes Bie vrie ischt auf der Pattlar aut,
!!!ARE: Europa, Suedosteuropa, Jugoslavija, Gottschee, Lichtenbach
!!!YOR: 1, S. 97
!!    1911 aufgezeichnet
!!!SCT: Q0011A
!!!YEM: Copyright 1995, estate of Helmut Schaffrath.
**kern
*ICvox
*Ivox
*M2/2
*k[]
*C:
{4G
=1
4c
4c
4c
4d
=2
4B
4A
2G}
=3
{2B
2c
=4
2.d}
{4c
=5
4e
4e
4e
4f
=6
4e
4d
2c}
=7
{2e
2d
=8
8c
8c
8B
8B
4c}
==
!!!AGN: Ballade, Ehe, Heimkehr
!! Grundton in der zweigestrichenen Oktave, 2. und 4. Zeile = Refrain
!!    auf sinnfreie Silben.
!!!ONB: ESAC (Essen Associative Code) Database: BALLADE
!!!AMT: simple duple
!!!AIN: vox
!!!EED: Helmut Schaffrath
!!!EEV: 1.0
*-
